apps/trade/public/tokens/sei.svg

<svg width="24" height="24" viewBox="0 0 24 25" fill="none" xmlns="http://www.w3.org/2000/svg">
<path fill-rule="evenodd" clip-rule="evenodd" d="M11.9684 24.5C15.4924 24.5 18.6626 22.989 20.863 20.5811L20.2775 19.9366C19.5529 19.1391 18.3177 19.0709 17.5088 19.7839L16.2598 20.8848C14.5607 22.3827 11.978 22.2882 10.394 20.6703L9.61301 19.8727C8.86306 19.1067 7.63421 19.0801 6.85133 19.8127L4.56058 21.9565C6.60279 23.5501 9.17436 24.5 11.9684 24.5ZM21.9702 18.4154L22.2545 18.7284C23.3621 16.9127 24 14.7807 24 12.5C24 9.73453 23.0621 7.18755 21.4861 5.15823C21.1932 5.23313 20.9132 5.37646 20.6714 5.58961L19.4224 6.69056C17.7233 8.18838 15.1406 8.09397 13.5566 6.47611L12.7756 5.67846C12.0256 4.9125 10.7968 4.8858 10.0139 5.61846L6.80042 8.62585L5.23708 6.97342L8.45058 3.96602C10.1399 2.38502 12.7917 2.44264 14.41 4.09551L15.1909 4.89317C15.9251 5.6429 17.1219 5.68665 17.9093 4.99254L19.1582 3.89159C19.3679 3.70682 19.5907 3.54637 19.8234 3.41003C17.7156 1.59658 14.9704 0.5 11.9684 0.5C5.93258 0.5 0.934849 4.9328 0.0693464 10.7124C1.71636 9.76676 3.85491 10.014 5.23829 11.4269L6.14147 12.3493C6.84349 13.0664 7.97595 13.142 8.76806 12.5248L11.4454 10.4386C13.0524 9.18644 15.3274 9.24701 16.8647 10.5829L20.5103 13.7508L19.0094 15.4594L15.3637 12.2916C14.6513 11.6724 13.597 11.6444 12.8524 12.2247L10.175 14.3109C8.46568 15.6428 6.02196 15.4796 4.50707 13.9323L3.6039 13.0099C2.85394 12.2439 1.62509 12.2172 0.842217 12.9499L0 13.738C0.260464 16.2727 1.31188 18.5736 2.90401 20.3913L5.288 18.1602C6.97736 16.5793 9.62909 16.6368 11.2474 18.2898L12.0284 19.0874C12.7625 19.8371 13.9593 19.8809 14.7467 19.1868L15.9957 18.0859C17.741 16.5473 20.4066 16.6944 21.9702 18.4154Z" fill="url(#paint0_linear_780_17353)"/>
<defs>
<linearGradient id="paint0_linear_780_17353" x1="12" y1="0.5" x2="16.7179" y2="24.5001" gradientUnits="userSpaceOnUse">
<stop stop-color="#780000"/>
<stop offset="1" stop-color="#C1121F"/>
</linearGradient>
</defs>
</svg>

<svg width="24" height="24" viewBox="0 0 24 25" fill="none" xmlns="http://www.w3.org/2000/svg">
    <path fill-rule="evenodd" clip-rule="evenodd" d="M11.968 24.5c3.524 0 6.695-1.511 8.895-3.919l-.585-.644a1.978 1.978 0 0 0-2.77-.153l-1.248 1.1a4.268 4.268 0 0 1-5.866-.214l-.781-.797a1.978 1.978 0 0 0-2.762-.06l-2.29 2.143a12 12 0 0 0 7.407 2.544Zm10.002-6.085.285.313A11.92 11.92 0 0 0 24 12.5c0-2.765-.938-5.312-2.514-7.342a1.966 1.966 0 0 0-.815.432l-1.249 1.1a4.268 4.268 0 0 1-5.865-.214l-.781-.798a1.978 1.978 0 0 0-2.762-.06L6.8 8.626 5.237 6.973l3.214-3.007a4.268 4.268 0 0 1 5.959.13l.78.797c.735.75 1.932.794 2.72.1l1.248-1.101c.21-.185.433-.346.665-.482A12.003 12.003 0 0 0 11.968.5C5.933.5.935 4.933.07 10.712a4.27 4.27 0 0 1 5.17.715l.902.922a1.978 1.978 0 0 0 2.627.176l2.677-2.086a4.27 4.27 0 0 1 5.42.144l3.645 3.168-1.5 1.708-3.646-3.167a1.978 1.978 0 0 0-2.512-.067l-2.677 2.086a4.268 4.268 0 0 1-5.668-.379l-.903-.922a1.978 1.978 0 0 0-2.762-.06L0 13.738a11.935 11.935 0 0 0 2.904 6.653l2.384-2.23a4.268 4.268 0 0 1 5.96.129l.78.797c.734.75 1.931.794 2.719.1l1.249-1.101a4.268 4.268 0 0 1 5.974.33Z" fill="url(#a)"/>
    <defs>
        <linearGradient id="a" x1="12" y1=".5" x2="16.718" y2="24.5" gradientUnits="userSpaceOnUse">
            <stop stop-color="#780000"/>
            <stop offset="1" stop-color="#C1121F"/>
        </linearGradient>
    </defs>
</svg>
